X: 5046
T: Brian Quinn's
R: reel
M: 4/4
K: Gmajor
DGGB dBGB|A=FFE FGAF|DGGB dBGE|=FGAF DGG^F|
DGGB dBGB|A=FFE FGAF|GABc dgbg|1 fdcA BGGF:|2 fdcA BGGA||
|:(3Bcd gd (3Bcd gd|BGBd ~c3A|(3Bcd gd (3Bcd ga|bgfa ~g3a|
bgaf gfdc|(3Bcd =fd cA=FD|GABc dBcA|1 BdcA BGGA:|2 BdcA BGGF||

